src/suggestion-white-icon.svg

<svg width="30" height="31" viewBox="0 0 30 31" fill="none" xmlns="http://www.w3.org/2000/svg">
<path d="M1.5 2.4C1.5 2.16131 1.59482 1.93239 1.7636 1.7636C1.93239 1.59482 2.16131 1.5 2.4 1.5H27.6C27.8387 1.5 28.0676 1.59482 28.2364 1.7636C28.4052 1.93239 28.5 2.16131 28.5 2.4V23.1C28.5 23.2182 28.4767 23.3352 28.4315 23.4444C28.3863 23.5536 28.32 23.6528 28.2364 23.7364C28.1528 23.82 28.0536 23.8863 27.9444 23.9315C27.8352 23.9767 27.7182 24 27.6 24H21.39C21.2669 23.9998 21.1451 24.0249 21.0321 24.0736C20.9191 24.1224 20.8173 24.1938 20.733 24.2835L15.6555 29.679C15.5713 29.7684 15.4698 29.8397 15.357 29.8884C15.2443 29.9372 15.1228 29.9623 15 29.9623C14.8772 29.9623 14.7557 29.9372 14.643 29.8884C14.5302 29.8397 14.4287 29.7684 14.3445 29.679L9.267 24.2835C9.18269 24.1938 9.08089 24.1224 8.96789 24.0736C8.85488 24.0249 8.73308 23.9998 8.61 24H2.4C2.16131 24 1.93239 23.9052 1.7636 23.7364C1.59482 23.5676 1.5 23.3387 1.5 23.1V2.4Z" stroke="white" stroke-width="1.5"/>
<path d="M15 7.5L17.1375 11.3625L21 13.5L17.1375 15.6375L15 19.5L12.8625 15.6375L9 13.5L12.8625 11.3625L15 7.5Z" stroke="white" stroke-width="1.5" stroke-linecap="round" stroke-linejoin="round"/>
</svg>

<?xml version="1.0" encoding="utf-8"?>
<!-- Generator: Adobe Illustrator 23.0.0, SVG Export Plug-In . SVG Version: 6.00 Build 0)  -->
<svg version="1.1" id="Layer_1" xmlns="http://www.w3.org/2000/svg" xmlns:xlink="http://www.w3.org/1999/xlink" x="0px" y="0px"
	 viewBox="0 0 30 31" style="enable-background:new 0 0 30 31;" xml:space="preserve">
<style type="text/css">
	.st0{fill:none;stroke:#FFF70C;stroke-width:1.5;}
	.st1{fill:none;stroke:#FFF70C;stroke-width:1.5;stroke-linecap:round;stroke-linejoin:round;}
</style>
<path class="st0" d="M1.5,2.4c0-0.2,0.1-0.5,0.3-0.6c0.2-0.2,0.4-0.3,0.6-0.3h25.2c0.2,0,0.5,0.1,0.6,0.3c0.2,0.2,0.3,0.4,0.3,0.6
	v20.7c0,0.1,0,0.2-0.1,0.3c0,0.1-0.1,0.2-0.2,0.3c-0.1,0.1-0.2,0.1-0.3,0.2c-0.1,0-0.2,0.1-0.3,0.1h-6.2c-0.1,0-0.2,0-0.4,0.1
	c-0.1,0-0.2,0.1-0.3,0.2l-5.1,5.4c-0.1,0.1-0.2,0.2-0.3,0.2c-0.1,0-0.2,0.1-0.4,0.1s-0.2,0-0.4-0.1c-0.1,0-0.2-0.1-0.3-0.2l-5.1-5.4
	c-0.1-0.1-0.2-0.2-0.3-0.2C8.9,24,8.7,24,8.6,24H2.4c-0.2,0-0.5-0.1-0.6-0.3c-0.2-0.2-0.3-0.4-0.3-0.6V2.4z"/>
<path class="st1" d="M15,7.5l2.1,3.9l3.9,2.1l-3.9,2.1L15,19.5l-2.1-3.9L9,13.5l3.9-2.1L15,7.5z"/>
</svg>
